actions/24/draw-spiral.svg

<?xml version="1.0" encoding="UTF-8" standalone="no"?>
<!-- Created with Inkscape (http://www.inkscape.org/) -->

<svg
   xmlns:dc="http://purl.org/dc/elements/1.1/"
   xmlns:cc="http://creativecommons.org/ns#"
   xmlns:rdf="http://www.w3.org/1999/02/22-rdf-syntax-ns#"
   xmlns:svg="http://www.w3.org/2000/svg"
   xmlns="http://www.w3.org/2000/svg"
   xmlns:sodipodi="http://sodipodi.sourceforge.net/DTD/sodipodi-0.dtd"
   xmlns:inkscape="http://www.inkscape.org/namespaces/inkscape"
   version="1.0"
   width="24"
   height="24"
   id="svg2"
   inkscape:version="0.48.3.1 r9886"
   sodipodi:docname="draw-spiral.svg">
  <sodipodi:namedview
     pagecolor="#ffffff"
     bordercolor="#666666"
     borderopacity="1"
     objecttolerance="10"
     gridtolerance="10"
     guidetolerance="10"
     inkscape:pageopacity="0"
     inkscape:pageshadow="2"
     inkscape:window-width="1920"
     inkscape:window-height="1023"
     id="namedview32"
     showgrid="true"
     inkscape:zoom="32"
     inkscape:cx="10.987273"
     inkscape:cy="12.925713"
     inkscape:window-x="-10"
     inkscape:window-y="35"
     inkscape:window-maximized="1"
     inkscape:current-layer="svg2"
     inkscape:snap-bbox="true"
     inkscape:bbox-paths="true"
     inkscape:bbox-nodes="true"
     inkscape:snap-bbox-edge-midpoints="true"
     inkscape:snap-bbox-midpoints="true"
     inkscape:object-paths="true"
     inkscape:snap-intersection-paths="true"
     inkscape:object-nodes="true"
     inkscape:snap-smooth-nodes="true"
     inkscape:snap-midpoints="true"
     inkscape:snap-object-midpoints="true"
     inkscape:snap-center="true"
     fit-margin-top="0"
     fit-margin-left="0"
     fit-margin-right="0"
     fit-margin-bottom="0"
     inkscape:snap-global="false"
     showguides="true"
     inkscape:guide-bbox="true">
    <inkscape:grid
       type="xygrid"
       id="grid3218"
       empspacing="5"
       visible="true"
       enabled="true"
       snapvisiblegridlinesonly="true"
       originx="-11px"
       originy="18px" />
  </sodipodi:namedview>
  <metadata
     id="metadata11">
    <rdf:RDF>
      <cc:Work
         rdf:about="">
        <dc:format>image/svg+xml</dc:format>
        <dc:type
           rdf:resource="http://purl.org/dc/dcmitype/StillImage" />
        <dc:title />
      </cc:Work>
    </rdf:RDF>
  </metadata>
  <defs
     id="defs4" />
  <path
     style="font-size:medium;font-style:normal;font-variant:normal;font-weight:normal;font-stretch:normal;text-indent:0;text-align:start;text-decoration:none;line-height:normal;letter-spacing:normal;word-spacing:normal;text-transform:none;direction:ltr;block-progression:tb;writing-mode:lr-tb;text-anchor:start;baseline-shift:baseline;color:#000000;fill:#485462;fill-opacity:0.7;fill-rule:nonzero;stroke:none;stroke-width:2;marker:none;visibility:visible;display:inline;overflow:visible;enable-background:accumulate;font-family:Sans;-inkscape-font-specification:Sans"
     d="M 11.09375,2.53125 C 8.66239,2.6694561 6.2269655,3.7149962 4.53125,5.75 c -2.9272469,3.5129466 -2.7035913,9.038187 1,12.03125 C 8.6612355,20.310752 13.474862,20.092705 16.0625,16.75 18.188894,14.003128 18.006785,9.7748615 15,7.59375 15.000938,7.5833615 15.000938,7.5728885 15,7.5625 11.899719,5.696044 8.9868124,6.6671103 7.46875,8.625 6.618856,9.6470711 6.3641425,11.071474 6.5,12.125 c 0.010389,9.38e-4 0.020861,9.38e-4 0.03125,0 0.1942285,1.192432 0.8760769,2.385437 2.125,3.03125 0.814986,0.421426 1.784001,0.514848 2.6875,0.28125 1.001749,-0.259001 1.971514,-1.058243 2.25,-2.3125 C 13.754669,12.400249 13.55452,11.679986 13.25,11.15625 12.649964,10.103285 11.373868,9.788468 10.4375,10.21875 9.6713244,10.49837 9.3545087,11.262811 9.40625,11.9375 9.417623,12.085805 9.457005,12.235718 9.5,12.375 c 0.1177684,0.147654 0.2506116,0.278361 0.4375,0.375 0.176584,0.09131 0.503948,0.149289 0.71875,0.09375 0.08576,-0.02217 0.120287,-0.04761 0.15625,-0.09375 0.0048,-0.0062 -0.0045,-0.02439 0,-0.03125 -0.003,-6.59e-4 0.003,-0.03053 0,-0.03125 -0.59483,-0.05467 -0.741345,-0.827554 -0.34375,-1.21875 0.235082,-0.235084 0.638403,-0.389025 1,-0.3125 0.3475,0.07354 0.531065,0.324146 0.65625,0.5 0.252615,0.354866 0.390444,0.726957 0.28125,1.21875 -0.166206,0.748564 -0.764206,1.21708 -1.375,1.375 C 10.429129,14.405678 9.7877208,14.340553 9.25,14.0625 8.3856393,13.615543 7.8879652,12.784513 7.75,11.9375 7.6126435,11.094224 7.81008,10.225004 8.28125,9.5 8.27996,9.489636 8.27996,9.479114 8.28125,9.46875 l 0.03125,0 0,-0.03125 c 1.3252673,-1.9584618 4.02224,-2.1334261 5.84375,-0.875 0.0073,0.00506 0.02396,-0.00511 0.03125,0 0.01036,-0.00129 0.02089,-0.00129 0.03125,0 0.01036,-0.00129 0.02089,-0.00129 0.03125,0 0.0013,0.010364 0.0013,0.020886 0,0.03125 2.396227,1.738215 2.566646,5.149366 0.84375,7.375 -2.136668,2.760143 -6.2005118,2.954632 -8.8125,0.84375 C 3.14949,14.281564 3.0019456,9.5603789 5.5,6.5625 6.9610279,4.8091416 9.0376126,3.90168 11.15625,3.78125 c 2.118523,-0.1204235 4.277449,0.558032 5.96875,2 3.883931,3.3113569 4.052407,9.293352 0.78125,13.0625 -0.676983,0.780045 -1.490375,1.438088 -2.375,1.96875 -0.520613,0.245381 -0.777536,0.449679 -1.601563,0.90625 1.673719,-0.214667 3.314554,-1.072736 4.570313,-2.28125 1.255759,-1.208514 2.180202,-2.676071 2.5625,-3.96875 9.38e-4,-0.01039 9.38e-4,-0.02086 0,-0.03125 1.007979,-3.731144 0.02479,-7.9083155 -3.125,-10.59375 -1.942489,-1.656125 -4.413112,-2.4506651 -6.84375,-2.3125 z"
     id="path3828"
     inkscape:connector-curvature="0"
     sodipodi:nodetypes="sssscccccsssccscccccccssssssccccsccccssssssccsccss" />
  <path
     style="font-size:medium;font-style:normal;font-variant:normal;font-weight:normal;font-stretch:normal;text-indent:0;text-align:start;text-decoration:none;line-height:normal;letter-spacing:normal;word-spacing:normal;text-transform:none;direction:ltr;block-progression:tb;writing-mode:lr-tb;text-anchor:start;baseline-shift:baseline;color:#000000;fill:#EDEFF3;fill-opacity:0.758;fill-rule:nonzero;stroke:none;stroke-width:2;marker:none;visibility:visible;display:inline;overflow:visible;enable-background:accumulate;font-family:Sans;-inkscape-font-specification:Sans"
     d="M 11.15625,3.78125 C 9.0376126,3.90168 6.9610279,4.8091416 5.5,6.5625 c -2.4980544,2.9978789 -2.35051,7.719064 0.78125,10.25 2.6119882,2.110882 6.675832,1.916393 8.8125,-0.84375 1.711701,-2.292264 1.557685,-5.695575 -0.9375,-7.40625 C 12.33474,7.3040739 9.6377673,7.4790382 8.3125,9.4375 l 0,0.03125 -0.03125,0 C 8.27996,9.479114 8.27996,9.489636 8.28125,9.5 7.81008,10.225004 7.6126435,11.094224 7.75,11.9375 c 0.1379652,0.847013 0.6356393,1.678043 1.5,2.125 0.5377208,0.278053 1.179129,0.343178 1.78125,0.1875 0.610794,-0.15792 1.208794,-0.626436 1.375,-1.375 0.109194,-0.491793 -0.02863,-0.863884 -0.28125,-1.21875 -0.125185,-0.175854 -0.30875,-0.426455 -0.65625,-0.5 -0.361597,-0.07653 -0.764918,0.07742 -1,0.3125 -0.5124766,0.4964 -0.08048,1.241455 0.34375,1.21875 0.003,7.17e-4 -0.003,0.03059 0,0.03125 -0.0045,0.0069 0.0048,0.0251 0,0.03125 -0.03596,0.04614 -0.07049,0.07158 -0.15625,0.09375 C 10.441448,12.89929 10.114084,12.84135 9.9375,12.75 9.5065124,12.527139 9.26455,12.160535 9.1875,11.6875 9.110643,11.215654 9.20626,10.685152 9.46875,10.28125 10.297189,9.0065041 12.189222,8.867172 13.40625,9.75 c 1.677402,1.216782 1.812597,3.728877 0.5625,5.34375 -1.60381,2.071798 -4.7426963,2.215955 -6.75,0.59375 -2.4629136,-1.990407 -2.6234472,-5.7579423 -0.625,-8.15625 2.3766,-2.8521233 6.774821,-3.0017161 9.5625,-0.625 3.240488,2.7627708 3.412331,7.793092 0.65625,10.96875 -0.575673,0.663311 -1.247513,1.267353 -2,1.71875 -0.390657,0.225546 -0.540253,0.665647 -0.335937,1.019531 0.287551,0.389789 0.710015,0.398215 1.054687,0.199219 0.884625,-0.530662 1.698017,-1.188705 2.375,-1.96875 3.271157,-3.769148 3.102681,-9.7511431 -0.78125,-13.0625 -1.691301,-1.441968 -3.850227,-2.1204235 -5.96875,-2 z"
     id="path3833"
     inkscape:connector-curvature="0"
     sodipodi:nodetypes="sssccccccssssssccccccsssssssscccsss" />
</svg>

<?xml version="1.0" encoding="UTF-8"?>
<!-- Created with Inkscape (http://www.inkscape.org/) -->
<svg width="24" height="24" version="1.0" xmlns="http://www.w3.org/2000/svg" xmlns:cc="http://creativecommons.org/ns#" xmlns:dc="http://purl.org/dc/elements/1.1/" xmlns:rdf="http://www.w3.org/1999/02/22-rdf-syntax-ns#">
	<metadata>
		<rdf:RDF>
			<cc:Work rdf:about="">
				<dc:format>image/svg+xml</dc:format>
				<dc:type rdf:resource="http://purl.org/dc/dcmitype/StillImage"/>
				<dc:title/>
			</cc:Work>
		</rdf:RDF>
	</metadata>
	<defs>
		<radialGradient id="a" cx="-4.6857" cy="9.0206" r="8.5006" gradientTransform="matrix(1.9779 0 0 2.4431 15.883 -15.818)" gradientUnits="userSpaceOnUse">
			<stop stop-color="#213851" stop-opacity=".9059" offset="0"/>
			<stop stop-color="#27303a" stop-opacity="0" offset="1"/>
		</radialGradient>
		<radialGradient id="b" cx="27.975" cy="8.5834" r="8.7344" gradientTransform="matrix(2.5888 0 0 2.5888 -66.474 -16.324)" gradientUnits="userSpaceOnUse">
			<stop stop-color="#ffffff" stop-opacity=".74858" offset="0"/>
			<stop stop-color="#ffffff" stop-opacity=".60511" offset="1"/>
		</radialGradient>
	</defs>
	<path d="m11.094 2.5312c-2.4314 0.13821-4.8668 1.1837-6.5625 3.2188-2.9272 3.5129-2.7036 9.0382 1 12.031 3.13 2.5295 7.9436 2.3115 10.531-1.0312 2.1264-2.7469 1.9443-6.9751-1.0625-9.1562 9.38e-4 -0.010388 9.38e-4 -0.020862 0-0.03125-3.1003-1.8665-6.0132-0.89539-7.5312 1.0625-0.84989 1.0221-1.1046 2.4465-0.96875 3.5 0.010389 9.38e-4 0.020861 9.38e-4 0.03125 0 0.19423 1.1924 0.87608 2.3854 2.125 3.0312 0.81499 0.42143 1.784 0.51485 2.6875 0.28125 1.0017-0.259 1.9715-1.0582 2.25-2.3125 0.16092-0.72475-0.03923-1.445-0.34375-1.9688-0.60004-1.053-1.8761-1.3678-2.8125-0.9375-0.76618 0.27962-1.083 1.0441-1.0312 1.7188 0.011373 0.1483 0.050755 0.29822 0.09375 0.4375 0.11777 0.14765 0.25061 0.27836 0.4375 0.375 0.17658 0.09131 0.50395 0.14929 0.71875 0.09375 0.08576-0.02217 0.12029-0.04761 0.15625-0.09375 0.0048-0.0062-0.0045-0.02439 0-0.03125-3e-3 -6.59e-4 3e-3 -0.03053 0-0.03125-0.59483-0.05467-0.74134-0.82755-0.34375-1.2188 0.23508-0.23508 0.6384-0.38902 1-0.3125 0.3475 0.07354 0.53106 0.32415 0.65625 0.5 0.25262 0.35487 0.39044 0.72696 0.28125 1.2188-0.16621 0.74856-0.76421 1.2171-1.375 1.375-0.60212 0.15568-1.2435 0.090553-1.7812-0.1875-0.86436-0.44696-1.362-1.278-1.5-2.125-0.13736-0.84328 0.06008-1.7125 0.53125-2.4375-0.00129-0.010364-0.00129-0.020886 0-0.03125h0.03125v-0.03125c1.3253-1.9585 4.0222-2.1334 5.8438-0.875 0.0073 0.00506 0.02396-0.00511 0.03125 0 0.01036-0.00129 0.02089-0.00129 0.03125 0 0.01036-0.00129 0.02089-0.00129 0.03125 0 0.0013 0.010364 0.0013 0.020886 0 0.03125 2.3962 1.7382 2.5666 5.1494 0.84375 7.375-2.1367 2.7601-6.2005 2.9546-8.8125 0.84375-3.1318-2.5309-3.2793-7.2521-0.78125-10.25 1.461-1.7534 3.5376-2.6608 5.6562-2.7812 2.1185-0.12042 4.2774 0.55803 5.9688 2 3.8839 3.3114 4.0524 9.2934 0.78125 13.062-0.67698 0.78004-1.4904 1.4381-2.375 1.9688-0.52061 0.24538-0.77754 0.44968-1.6016 0.90625 1.6737-0.21467 3.3146-1.0727 4.5703-2.2812s2.1802-2.6761 2.5625-3.9688c9.38e-4 -0.01039 9.38e-4 -0.02086 0-0.03125 1.008-3.7311 0.02479-7.9083-3.125-10.594-1.9425-1.6561-4.4131-2.4507-6.8438-2.3125z" color="#000000" fill="url(#b)" style="block-progression:tb;font-variant-east_asian:normal;paint-order:normal;text-indent:0;text-transform:none"/>
	<path d="m11.156 3.7812c-2.1186 0.12043-4.1952 1.0279-5.6562 2.7812-2.4981 2.9979-2.3505 7.7191 0.78125 10.25 2.612 2.1109 6.6758 1.9164 8.8125-0.84375 1.7117-2.2923 1.5577-5.6956-0.9375-7.4062-1.8215-1.2584-4.5185-1.0835-5.8438 0.875v0.03125h-0.03125c-0.00129 0.010364-0.00129 0.020886 0 0.03125-0.47117 0.725-0.66861 1.5942-0.53125 2.4375 0.13797 0.84701 0.63564 1.678 1.5 2.125 0.53772 0.27805 1.1791 0.34318 1.7812 0.1875 0.61079-0.15792 1.2088-0.62644 1.375-1.375 0.10919-0.49179-0.02863-0.86388-0.28125-1.2188-0.12518-0.17585-0.30875-0.42646-0.65625-0.5-0.3616-0.07653-0.76492 0.07742-1 0.3125-0.51248 0.4964-0.08048 1.2415 0.34375 1.2188 3e-3 7.17e-4 -3e-3 0.03059 0 0.03125-0.0045 0.0069 0.0048 0.0251 0 0.03125-0.03596 0.04614-0.07049 0.07158-0.15625 0.09375-0.2148 0.05554-0.54217-0.0024-0.71875-0.09375-0.43099-0.22286-0.67295-0.58946-0.75-1.0625-0.076857-0.47185 0.01876-1.0023 0.28125-1.4062 0.82844-1.2747 2.7205-1.4141 3.9375-0.53125 1.6774 1.2168 1.8126 3.7289 0.5625 5.3438-1.6038 2.0718-4.7427 2.216-6.75 0.59375-2.4629-1.9904-2.6234-5.7579-0.625-8.1562 2.3766-2.8521 6.7748-3.0017 9.5625-0.625 3.2405 2.7628 3.4123 7.7931 0.65625 10.969-0.57567 0.66331-1.2475 1.2674-2 1.7188-0.39066 0.22555-0.54025 0.66565-0.33594 1.0195 0.28755 0.38979 0.71002 0.39822 1.0547 0.19922 0.88462-0.53066 1.698-1.1887 2.375-1.9688 3.2712-3.7691 3.1027-9.7511-0.78125-13.062-1.6913-1.442-3.8502-2.1204-5.9688-2z" color="#000000" fill="#090d11" fill-opacity=".76621" style="paint-order:normal;text-decoration-line:none;text-indent:0;text-transform:none"/>
	<path d="m11.156 3.7812c-2.1186 0.12043-4.1952 1.0279-5.6562 2.7812-2.4981 2.9979-2.3505 7.7191 0.78125 10.25 2.612 2.1109 6.6758 1.9164 8.8125-0.84375 1.7117-2.2923 1.5577-5.6956-0.9375-7.4062-1.8215-1.2584-4.5185-1.0835-5.8438 0.875v0.03125h-0.03125c-0.00129 0.010364-0.00129 0.020886 0 0.03125-0.47117 0.725-0.66861 1.5942-0.53125 2.4375 0.13797 0.84701 0.63564 1.678 1.5 2.125 0.53772 0.27805 1.1791 0.34318 1.7812 0.1875 0.61079-0.15792 1.2088-0.62644 1.375-1.375 0.10919-0.49179-0.02863-0.86388-0.28125-1.2188-0.12518-0.17585-0.30875-0.42646-0.65625-0.5-0.3616-0.07653-0.76492 0.07742-1 0.3125-0.51248 0.4964-0.08048 1.2415 0.34375 1.2188 3e-3 7.17e-4 -3e-3 0.03059 0 0.03125-0.0045 0.0069 0.0048 0.0251 0 0.03125-0.03596 0.04614-0.07049 0.07158-0.15625 0.09375-0.2148 0.05554-0.54217-0.0024-0.71875-0.09375-0.43099-0.22286-0.67295-0.58946-0.75-1.0625-0.076857-0.47185 0.01876-1.0023 0.28125-1.4062 0.82844-1.2747 2.7205-1.4141 3.9375-0.53125 1.6774 1.2168 1.8126 3.7289 0.5625 5.3438-1.6038 2.0718-4.7427 2.216-6.75 0.59375-2.4629-1.9904-2.6234-5.7579-0.625-8.1562 2.3766-2.8521 6.7748-3.0017 9.5625-0.625 3.2405 2.7628 3.4123 7.7931 0.65625 10.969-0.57567 0.66331-1.2475 1.2674-2 1.7188-0.39066 0.22555-0.54025 0.66565-0.33594 1.0195 0.28755 0.38979 0.71002 0.39822 1.0547 0.19922 0.88462-0.53066 1.698-1.1887 2.375-1.9688 3.2712-3.7691 3.1027-9.7511-0.78125-13.062-1.6913-1.442-3.8502-2.1204-5.9688-2z" color="#000000" fill="url(#a)" fill-opacity=".75328" style="block-progression:tb;font-variant-east_asian:normal;paint-order:normal;text-indent:0;text-transform:none"/>
</svg>
